!!!!SEGMENT: pl-sa--155-a-iv-5--004_luna-georgius--vesperae-in-d-laudate-pueri.krn
!!!cenid: 17xx:523
!!!COM: Luna, Georgius
!!!COM-rismid: pe41010079
!!!CDT:
!!!CNT:
!!!OPR: Vesperae in D
!!!OTL: Laudate pueri
!!!OMV: 004
!!!PDT:
!!!AGN: Sacred; Vespers
!!!SMS-siglum: PL-SA
!!!SMS-shelfmark: 155/A IV 5
!!!SMS-shelfwork: 001-004 M
!!!SMS-variant:
!!!SMS-altvar:
!!!NIFC-rismid: 1001070698
!!!URL-scan: http://bc.bdsandomierz.pl/dlibra/publication/1541/edition/1509/content
!!!ONB-nifc: UWAGA: części Vesperae: Dixit Dominus, Confitebor, Beatus vir, Laudate pueri, Laudate Dominum, Magnificat
**kern	**dynam	**kern	**kern	**dynam	**kern	**text	**kern	**text
*part5	*part5	*part4	*part3	*part3	*part2	*part2	*part1	*part1
*	*	*group2	*group2	*	*group1	*	*group1	*
*staff5	*	*staff4	*staff3	*	*staff2	*staff2	*staff1	*staff1
*Iempty	*	*Ivioln	*Ivioln	*	*Itenor	*	*Ivox	*
*I"Fundamento	*	*I"Violino Secundo	*I"Violino Primo	*	*I"Tenor	*	*I"Canto	*
*I'org	*	*I'vl 2	*I'vl 1	*	*I'T	*	*I'S	*
*clefF4	*	*clefG2	*clefG2	*	*clefC4	*	*clefC1	*
*k[f#c#]	*	*k[f#c#]	*k[f#c#]	*	*k[f#c#]	*	*k[f#c#]	*
*D:	*	*D:	*D:	*	*D:	*	*D:	*
*M3/8	*	*M3/8	*M3/8	*	*M3/8	*	*M3/8	*
=1	=1	=1	=1	=1	=1	=1	=1	=1
!LO:TX:a:t=Allo n mol	!	!	!LO:TX:a:B:t=Allo&colon;	!	!	!	!	!
8D\	.	8ff#\	8aa\	.	8d\	Lau-	8ff#\	Lau-
4A\	.	4ee\	4aa\	.	4c#\	-da-	4ee\	-da-
=2	=2	=2	=2	=2	=2	=2	=2	=2
4D\	.	8ff#\	8aa\L	.	8d\	-te	8ff#\	-te
.	.	4ff#\	16dd\L	.	4A/	Lau-	4ff#\	lau-
.	.	.	16ff#\	.	.	.	.	.
8D\	.	.	16aa\	.	.	.	.	.
.	.	.	16ddd\JJ	.	.	.	.	.
=3	=3	=3	=3	=3	=3	=3	=3	=3
!	!	!	!	!	!LO:N:vis=8.	!	!	!
4A\	.	4ee\	8ccc#\	.	4c#\	-da-	4ee\	-da-
.	.	.	4ccc#\	.	.	.	.	.
8A\	.	8ee\	.	.	8c#\	-te	8ee\	-te
=4	=4	=4	=4	=4	=4	=4	=4	=4
4G\	.	8.dd\L	8.bb\L	.	8.B\	Pu-	8.dd\	Pu-
.	.	16ee\K	16ccc#\K	.	16c#\	-e-	16ee\	-e-
8D\	.	8ff#\J	8ddd\J	.	8d\	-ri	8ff#\	-ri
=5	=5	=5	=5	=5	=5	=5	=5	=5
!LO:TX:a:t=P:problem:mixed beam	!	!	!	!	!	!	!	!
8.A\L	.	8.ee\L	8.ccc#\L	.	8.c#\	Do-	8.ee\	Do-
16AA/K	.	16ee\K	16ccc#\K	.	16c#\	-mi-	16ee\	-mi-
8AA/J	.	8ee\J	8ccc#\J	.	8c#\	-num	8ee\	-num
!	!	!	!	!	!LO:LB:g=original	!	!	!
=6	=6	=6	=6	=6	=6	=6	=6	=6
8D\L	.	8f#/L	8ddd\L	.	8F#/	Lau-	8dd\	lau-
8F#\	.	8a/	8dd\	.	8A/	-da-	8dd\	-da-
8D\J	.	8f#/J	8dd\J	.	8F#/	-te	8dd\	-te
!	!	!	!	!	!	!	!LO:LB:g=original	!
=7	=7	=7	=7	=7	=7	=7	=7	=7
4G\	.	8b\L	8dd\L	.	8B\L	no-	8dd\L	no-
.	.	8cc#\	8ee\	.	8c#\J	.	8ee\J	.
8D\	.	8dd\J	8ff#\J	.	8d\	-men	8ff#\	-men
=8	=8	=8	=8	=8	=8	=8	=8	=8
4A\	.	4.cc#\	4.eeT\	.	4c#\	Do-	4ee\	Do-
8AA/	.	.	.	.	8c#\	-mi-	8ee\	-mi-
=9	=9	=9	=9	=9	=9	=9	=9	=9
4D\	.	8dd\	16dd\LL	.	4d\	-ni	4ff#\	-ni
.	.	.	16a\	.	.	.	.	.
.	.	8r	16b\	.	.	.	.	.
.	.	.	16cc#\	.	.	.	.	.
8F#\	.	8a/	16dd\	.	8r	.	8r	.
.	.	.	16ccn\JJ	.	.	.	.	.
=10	=10	=10	=10	=10	=10	=10	=10	=10
!	!	!	!	!	!LO:N:vis=00	!	!LO:N:vis=0	!
8G\	.	8d/	16b\LL	.	1.r	.	2.r	.
.	.	.	16b\	.	.	.	.	.
8r	.	8r	16cc#X\	.	.	.	.	.
.	.	.	16dd\	.	.	.	.	.
8G#X\	.	8b/	16ee\	.	.	.	.	.
.	.	.	16dd\JJ	.	.	.	.	.
=11	=11	=11	=11	=11	=11	=11	=11	=11
8A\	.	8e/	16cc#\LL	.	.	.	.	.
.	.	.	16ee\	.	.	.	.	.
8r	.	8r	16ff#\	.	.	.	.	.
.	.	.	16gg#X\	.	.	.	.	.
8C#/	.	8cc#\	16aa\	.	.	.	.	.
.	.	.	16ggn\JJ	.	.	.	.	.
=12	=12	=12	=12	=12	=12	=12	=12	=12
*	*	*	*Xtuplet	*	*	*	*	*
!LO:TX:a:t=P:problem:mixed beam	!	!	!	!	!	!	!	!
8D\L	.	8dd\	24ff#\LL	.	.	.	4.r	.
.	.	.	24ee\	.	.	.	.	.
.	.	.	24dd\JJ	.	.	.	.	.
8A\	.	4cc#t\	4eeT\	.	.	.	.	.
8AA/J	.	.	.	.	.	.	.	.
=13	=13	=13	=13	=13	=13	=13	=13	=13
8D\	.	8dd\	8dd\	.	.	.	8dd\	Sit
!	!	!	!	!	!	!	!LO:N:vis=8.	!
8r	.	4r	8r	.	.	.	8dd\	no-
8F#\	.	.	8r	.	.	.	16cc#\LL	-men
.	.	.	.	.	.	.	16dd\JJ	.
!	!	!	!LO:LB:g=original	!	!	!	!	!
=14	=14	=14	=14	=14	=14	=14	=14	=14
!	!	!	!	!	!LO:N:vis=00	!	!	!
8G\L	.	4.r	4.r	.	1.r	.	8ee\	Do-
8A\	.	.	.	.	.	.	16dd\LL	-mi-
.	.	.	.	.	.	.	16cc#\JJ	.
8D\J	.	.	.	.	.	.	8dd\	-ni
!LO:LB:g=original	!	!	!	!	!	!	!	!
=15	=15	=15	=15	=15	=15	=15	=15	=15
!LO:TX:a:t=P:problem:mixed beam	!	!	!	!LO:DY:t=pia	!	!	!	!
8G\L	.	8g/L	8b\L	p	.	.	4b\	be-
8BB/	.	8g/	8b\	.	.	.	.	.
8GG/J	.	8g/J	8b\J	.	.	.	8b\	-ne-
=16	=16	=16	=16	=16	=16	=16	=16	=16
8D\L	.	8g/L	8b\L	.	.	.	8b\	-dic-
8F#\	.	8f#/	8a\	.	.	.	8a\	-tum
8D\J	.	8f#/J	8a\J	.	.	.	8r	.
!	!	!	!	!	!	!	!LO:LB:g=original	!
=17	=17	=17	=17	=17	=17	=17	=17	=17
8AA/L	.	8r	8r	.	.	.	8ee\	ex
.	.	.	.	.	.	.	8qqa/	.
8C#/	.	8e/L	8g/L	.	.	.	4g\	hoc
8AA/J	.	8e/J	8g/J	.	.	.	.	.
!	!	!LO:LB:g=original	!	!	!	!	!	!
=18	=18	=18	=18	=18	=18	=18	=18	=18
!	!	!	!	!	!LO:N:vis=00	!	!	!
8D\L	.	8d/L	8f#/L	.	1.r	.	16f#\LL	nunc
.	.	.	.	.	.	.	16a\JJ	.
8F#\	.	8f#/	8a/	.	.	.	4dd\	.
8D\J	.	8f#/J	8a/J	.	.	.	.	.
=19	=19	=19	=19	=19	=19	=19	=19	=19
8AA/L	.	8r	8r	.	.	.	8ee\	nunc
8C#/	.	8e/L	8g/L	.	.	.	4g\	et
8AA/J	.	8e/J	8g/J	.	.	.	.	.
=20	=20	=20	=20	=20	=20	=20	=20	=20
8D\L	.	8d/L	8f#/L	.	.	.	16f#\LL	us-
.	.	.	.	.	.	.	16a\JJ	.
8F#\	.	8f#/	8a/	.	.	.	4dd\	-que
8D\J	.	8f#/J	8a/J	.	.	.	.	.
=21	=21	=21	=21	=21	=21	=21	=21	=21
*	*	*	*	*	*	*	*Xtuplet	*
!LO:TX:a:t=P:problem:mixed beam	!	!	!	!	!	!	!	!
8G\L	.	16g/LL	8b\	.	.	.	24gg\LL	in
.	.	.	.	.	.	.	24ff#\	.
.	.	16e/JJ	.	.	.	.	.	.
.	.	.	.	.	.	.	24ee\JJ	.
.	.	.	.	.	.	.	8qqdd/	.
8A\	.	4cc#t\	4eeT\	.	.	.	8.cc#\	se-
8AA/J	.	.	.	.	.	.	.	.
.	.	.	.	.	.	.	16cc#\	-cu-
=22	=22	=22	=22	=22	=22	=22	=22	=22
!LO:TX:a:t=P:problem:nadmiarowy takt w tenorze	!	!LO:TX:a:t=P:problem:nadmiarowy takt w tenorze	!LO:TX:a:t=P:problem:nadmiarowy takt w tenorze	!	!LO:TX:a:t=P:problem:nadmiarowy takt	!	!LO:TX:a:t=P:problem:nadmiarowy takt w tenorze	!
4.ryy	.	4.ryy	4.ryy	.	4.r	.	4.ryy	.
=23	=23	=23	=23	=23	=23	=23	=23	=23
!LO:TX:a:t=P:problem:mixed beam	!	!	!	!	!	!	!	!
8D/L	.	8dd\L	16ff#\LL	.	16r	.	16dd\	-lum
.	.	.	16dd\	.	16A\	a	16ff#\	a
8d\	.	8a\	16ff#\	.	8A\	So-	8ff#\	so-
.	.	.	16aa\	.	.	.	.	.
8D/J	.	8a\J	16ff#\	.	8A\	-lis	8ff#\	-lis
.	.	.	16dd\JJ	.	.	.	.	.
=24	=24	=24	=24	=24	=24	=24	=24	=24
8A\L	.	16cc#\LL	16ee\LL	.	16c#\LL	or-	16ee\LL	-or-
.	.	16b\	16dd\	.	16B\JJ	.	16dd\JJ	.
8c#\	.	16cc#\	16ee\	.	4c#\	-tu	4ee\	-tu
.	.	16ee\	16aa\	.	.	.	.	.
8A\J	.	16cc#\	16ee\	.	.	.	.	.
.	.	16a\JJ	16cc#\JJ	.	.	.	.	.
!	!	!	!	!	!	!	!LO:LB:g=original	!
=25	=25	=25	=25	=25	=25	=25	=25	=25
8E\L	.	16b\LL	16dd\LL	.	16B\	usq(ue)	16dd\	us-
.	.	16a\	16cc#\	.	16A\	ad	16cc#\	-que
8G#X\	.	16b\	16dd\	.	8B\	oc-	8dd\	ad
.	.	16ee\	16bb\	.	.	.	.	.
!	!	!	!	!	!LO:TX:b:t=P:problem:tekst ledwo czytelny	!	!	!
8E\J	.	16b\	16dd\	.	8B\	-ca-	8dd\	oc-
.	.	16g#X\JJ	16b\JJ	.	.	.	.	.
=26	=26	=26	=26	=26	=26	=26	=26	=26
!LO:TX:a:t=P:problem:mixed beam	!	!	!	!	!	!	!	!
8A\L	.	8b\L	8dd\L	.	8B\	-ca-	8dd\	-ca-
8AA/	.	16a\L	16cc#\L	.	8A\	-sum	8cc#\	-sum
.	.	16a\	16a\	.	.	.	.	.
8c#\J	.	16cc#\	16cc#\	.	8A\	lau	8ee\	lau
.	.	16ee\JJ	16ee\JJ	.	.	.	.	.
!	!	!	!	!	!LO:LB:g=original	!	!	!
=27	=27	=27	=27	=27	=27	=27	=27	=27
!LO:TX:a:t=P:problem:mixed beam	!	!	!	!	!	!	!	!
8D/L	.	8ff#\L	16.ff#\LL	.	8A\	da-	8ff#\	da-
.	.	.	32aa#X\JJk	.	.	.	.	.
8d\	.	8ff#\	8.bb\L	.	16A\LL	-bi-	8ff#\	-bi-
.	.	.	.	.	16d\JJ	.	.	.
8B\J	.	16ee\L	.	.	16c#\LL	-le	16ee\LL	-le
.	.	16dd\JJ	16ff#\Jk	.	16B\JJ	.	16dd\JJ	.
!	!	!	!LO:LB:g=original	!	!	!	!	!
=28	=28	=28	=28	=28	=28	=28	=28	=28
!LO:TX:a:t=P:problem:mixed beam	!	!	!	!	!	!	!	!
8C#/L	.	8ee\L	16.ee\LL	.	8A\	no-	4ee\	no-
.	.	.	32gg#X\JJk	.	.	.	.	.
8c#\	.	8ee\	8.aa\L	.	16A\LL	.	.	.
.	.	.	.	.	16c#\JJ	.	.	.
8A\J	.	16dd\L	.	.	16B\LL	-men	16dd\LL	-men
.	.	16cc#\JJ	16ee\Jk	.	16A\JJ	.	16cc#\JJ	.
=29	=29	=29	=29	=29	=29	=29	=29	=29
8B\L	.	8dd\L	16.dd\LL	.	4G#X/	Do-	4dd\	Do-
.	.	.	32bb\JJk	.	.	.	.	.
8E\	.	8b\	8dd\L	.	.	.	.	.
8E\J	.	8b\J	8dd\J	.	8B\	-mi-	8dd\	-mi-
=30	=30	=30	=30	=30	=30	=30	=30	=30
.	.	.	8qqdd/	.	.	.	.	.
!LO:TX:a:t=P:problem:mixed beam	!	!	!	!	!	!	!	!
8A\L	.	8.a\L	8.cc#\L	.	4A/	-ni	4cc#\	-ni
8C#/	.	.	.	.	.	.	.	.
.	.	16ee\L	16ee\L	.	.	.	.	.
8AA/J	.	16cc#\	16cc#\	.	8E/	lau-	8a\	lau-
.	.	16a\JJ	16a\JJ	.	.	.	.	.
!LO:PB:g=original	!	!	!	!	!	!	!LO:LB:g=original	!
=31	=31	=31	=31	=31	=31	=31	=31	=31
8D/L	.	8f#/L	8.f#/L	.	8F#/L	-da-	4f#/	-da-
8BB/	.	8d/	.	.	8D/J	.	.	.
.	.	.	16b/L	.	.	.	.	.
8D/J	.	8f#/J	16cc#/	.	8F#/	-bi-	8b\	-bi-
.	.	.	16dd/JJ	.	.	.	.	.
=32	=32	=32	=32	=32	=32	=32	=32	=32
.	.	.	8qqa/	.	.	.	8qqa/	.
8E\L	.	8g#X/L	8.g#X/L	.	8G#X/L	-le	4g#X\	-le
8C#\	.	8e/	.	.	8E/J	.	.	.
.	.	.	16cc#/L	.	.	.	.	.
8E\J	.	8g#/J	16dd/	.	8G#/	no	8cc#\	no
.	.	.	16ee/JJ	.	.	.	.	.
!	!	!LO:LB:g=original	!	!	!	!	!	!
=33	=33	=33	=33	=33	=33	=33	=33	=33
.	.	.	8qqb/	.	.	.	8qqb/	.
8F#\L	.	8a/L	8.a\L	.	8A/L	-men	4a\	-men
8D\	.	8f#/	.	.	8F#/J	.	.	.
.	.	.	16cc#\L	.	.	.	.	.
8F#\J	.	8a/J	16dd\	.	8A/	.	8dd\	no
.	.	.	16ee\JJ	.	.	.	.	.
=34	=34	=34	=34	=34	=34	=34	=34	=34
.	.	.	8qqcc#/	.	.	.	8qqcc#/	.
8G#X\L	.	8b/L	8.b\L	.	8B\L	Do-	4b\	men
8E\	.	8g/	.	.	8G#X\J	.	.	.
.	.	.	16bb\L	.	.	.	.	.
8G#\J	.	8b/J	16gg#X\	.	8B\	.	8ee\	Do-
.	.	.	16dd\JJ	.	.	.	.	.
!	!	!	!	!	!LO:LB:g=original	!	!	!
=35	=35	=35	=35	=35	=35	=35	=35	=35
.	.	.	.	.	.	.	8qqdd/	.
!LO:TX:a:t=P:problem:mixed beam	!	!	!	!	!	!	!	!
8A\L	.	8a/L	24cc#\LL	.	8A/	.	24cc#\LL	.
.	.	.	24b\	.	.	.	24b\	.
.	.	.	24a\JJ	.	.	.	24a\JJ	.
8E\	.	8g#X/	4bT\	.	8.G#X/	-mi-	8.b\	.
8EE/J	.	8g#/J	.	.	.	.	.	.
.	.	.	.	.	16G#/	.	16b\	-mi-
=36	=36	=36	=36	=36	=36	=36	=36	=36
8AA/	.	8a/	16a/LL	.	8A\	-ni	8a\	-ni
.	.	.	16e/	.	.	.	.	.
8r	.	8r	16f#/	.	4r	.	4r	.
.	.	.	16g#X/	.	.	.	.	.
8C#/	.	8e/	16a/	.	.	.	.	.
.	.	.	16gn/JJ	.	.	.	.	.
=37	=37	=37	=37	=37	=37	=37	=37	=37
!	!	!	!	!	!LO:TX:a:t=P:problem:powinny być 3 takty pauzy	!	!LO:N:vis=00	!
8D/	.	8A/	16f#/LL	.	4.ryy	.	1.r	.
.	.	.	16f#/	.	.	.	.	.
8r	.	8r	16g#X/	.	.	.	.	.
.	.	.	16a/	.	.	.	.	.
8D#X/	.	8f#/	16b/	.	.	.	.	.
.	.	.	16a/JJ	.	.	.	.	.
!	!	!	!LO:LB:g=original	!	!	!	!	!
=38	=38	=38	=38	=38	=38	=38	=38	=38
8E\	.	8B/	16g/LL	.	4.ryy	.	.	.
.	.	.	16b/	.	.	.	.	.
8r	.	8r	16cc#/	.	.	.	.	.
.	.	.	16dd/	.	.	.	.	.
8G#X\	.	8b\	16ee/	.	.	.	.	.
.	.	.	16dd/JJ	.	.	.	.	.
=39	=39	=39	=39	=39	=39	=39	=39	=39
!LO:TX:a:t=P:problem:mixed beam	!	!	!	!	!	!	!	!
8A\L	.	8a/	24cc#\LL	.	4.ryy	.	.	.
.	.	.	24b\	.	.	.	.	.
.	.	.	24a\JJ	.	.	.	.	.
8E\	.	4g#X/	4bT\	.	.	.	.	.
8AA/J	.	.	.	.	.	.	.	.
=40	=40	=40	=40	=40	=40	=40	=40	=40
!LO:TX:a:t=P:problem:mixed beam	!LO:DY:t=pia	!	!	!LO:DY:t=pia	!	!	!	!
8AA/L	p	8a\L	8a\L	p	8A/	ex-	.	.
16A\L	.	16dd\L	16ff#\L	.	8f#\	-cel-	.	.
16A\	.	16dd\	16ff#\	.	.	.	.	.
16A\	.	16dd\	16ff#\	.	8f#\	-sus	.	.
16A\JJ	.	16dd\JJ	16ff#\JJ	.	.	.	.	.
=41	=41	=41	=41	=41	=41	=41	=41	=41
!	!	!	!	!	!	!	!LO:N:vis=00	!
16A\LL	.	16cc#\LL	16ee\LL	.	16e\LL	Su-	1.r	.
16A\	.	16cc#\	16ee\	.	16c#\JJ	.	.	.
.	.	.	.	.	8qqB/	.	.	.
16A\	.	16cc#\	16ee\	.	4A/	-per	.	.
16A\	.	16cc#\	16ee\	.	.	.	.	.
16A\	.	16cc#\	16ee\	.	.	.	.	.
16A\JJ	.	16cc#\JJ	16ee\JJ	.	.	.	.	.
=42	=42	=42	=42	=42	=42	=42	=42	=42
16E\LL	.	16b\LL	16dd\LL	.	16B\	om-	.	.
16E\	.	16a\	16dd\	.	16c#\	-nes	.	.
.	.	.	.	.	8qqe/	.	.	.
16E\	.	16b\	16dd\	.	8d\	gen-	.	.
16E\	.	16b\	16dd\	.	.	.	.	.
16E\	.	16b\	16dd\	.	8d\	-tes	.	.
16E\JJ	.	16b\JJ	16dd\JJ	.	.	.	.	.
=43	=43	=43	=43	=43	=43	=43	=43	=43
16AA/LL	.	16a/LL	16cc#\LL	.	16c#\	Do-	.	.
16AA/	.	16e/	16cc#\	.	16B\	-mi-	.	.
.	.	.	.	.	8qqB/	.	.	.
16AA/	.	16e/	16cc#\	.	4A\	-nus	.	.
16AA/	.	16e/	16cc#\	.	.	.	.	.
16AA/	.	16e/	16cc#\	.	.	.	.	.
16AA/JJ	.	16e/JJ	16cc#\JJ	.	.	.	.	.
!LO:LB:g=original	!	!	!	!	!	!	!	!
=44	=44	=44	=44	=44	=44	=44	=44	=44
!	!	!	!	!	!LO:SIC:l:s=et:v	!	!	!
4AA/	.	8e/	8a/	.	8A/	ex	.	.
.	.	8r	8r	.	8c#\	Su-	.	.
8AA/	.	8r	8r	.	8A/	-per	.	.
!	!	!	!	!	!LO:LB:g=original	!	!	!
=45	=45	=45	=45	=45	=45	=45	=45	=45
.	.	.	.	.	8qqG/	.	.	.
!	!	!	!	!	!LO:N:vis=8.	!	!LO:N:vis=00	!
8D\L	.	8f#/	8a/	.	8F#/	Coe-	1.r	.
8F#\	.	8r	8r	.	4F#/	-los	.	.
8D\J	.	8r	8r	.	.	.	.	.
=46	=46	=46	=46	=46	=46	=46	=46	=46
!	!	!	!	!	!LO:SIC:l:s=et:v	!	!	!
4BB/	.	8f#/	8b/	.	8B\	ex	.	.
.	.	8r	8r	.	8d\	su-	.	.
8BB/	.	8r	8r	.	8B\	-per	.	.
!	!	!LO:LB:g=original	!	!	!	!	!	!
=47	=47	=47	=47	=47	=47	=47	=47	=47
.	.	.	.	.	8qqA/	.	.	.
8E\L	.	8g#X/	8b/	.	8G#X/	Coe-	.	.
!	!	!	!	!	!LO:SIC:l:s=los:v	!	!	!
8G#X\	.	8r	8r	.	4G#/	-les	.	.
8E\J	.	8r	8r	.	.	.	.	.
=48	=48	=48	=48	=48	=48	=48	=48	=48
8E\L	.	8g#X/L	8b\L	.	16G\LL	Glo-	.	.
.	.	.	.	.	16A\	.	.	.
8E\	.	8g#/	8b\	.	16B\	.	.	.
.	.	.	.	.	16c#\	.	.	.
8E\J	.	8g#/J	8b\J	.	16d\	.	.	.
.	.	.	.	.	16e\JJ	.	.	.
=49	=49	=49	=49	=49	=49	=49	=49	=49
!	!	!	!	!	!	!	!LO:N:vis=0	!
8E\L	.	4g/	4b\	.	8f#\	.	2.r	.
8G#X\	.	.	.	.	16e\LL	-ri-	.	.
.	.	.	.	.	16d\JJ	.	.	.
8E\J	.	8r	8r	.	16c#\LL	-a	.	.
.	.	.	.	.	16B\JJ	.	.	.
=50	=50	=50	=50	=50	=50	=50	=50	=50
16C#/LL	.	4.r	4.r	.	16A\LL	e-	.	.
16D/JJ	.	.	.	.	16B\JJ	.	.	.
!LO:TX:a:t=P:problem:mixed beam	!	!	!	!	!	!	!	!
8E\L	.	.	.	.	4BM\	-jus	.	.
8EE/J	.	.	.	.	.	.	.	.
=51	=51	=51	=51	=51	=51	=51	=51	=51
!LO:TX:a:t=P:problem:mixed beam	!LO:DY:t=for	!	!	!	!	!	!	!
8AA/L	f	16a\LL	16a\LL	.	8A\	.	8r	.
!	!	!	!	!LO:DY:t=for	!	!	!	!
.	.	16ee\	16aa\	f	.	.	.	.
8A\	.	16cc#\	16ee\	.	8c#\	quis	8ee\	quis
.	.	16a\JJ	16cc#\JJ	.	.	.	.	.
8A\J	.	16e/LL	16a/LL	.	8c#\	Si-	8ee\	si-
.	.	16c#/JJ	16e/JJ	.	.	.	.	.
!	!	!	!LO:LB:g=original	!	!	!	!LO:LB:g=original	!
=52	=52	=52	=52	=52	=52	=52	=52	=52
!	!	!LO:TX:a:t=P:problem:mixed beam	!	!	!	!	!	!
8A\L	.	8A/L	16c#/LL	.	8c#\	-cut	8ee\	-cut
.	.	.	16A/JJ	.	.	.	.	.
8F#\	.	8b\	8dd\L	.	8.B\	Do-	8.dd\	Do-
8G#X\J	.	8b\J	8dd\J	.	.	.	.	.
!	!	!	!	!	!LO:LB:g=original	!	!	!
.	.	.	.	.	16B\	-mi-	16dd\	-mi-
=53	=53	=53	=53	=53	=53	=53	=53	=53
8A\L	.	16a\LL	16cc#\LL	.	8A\	-nus	8cc#\	-nus
.	.	16ee\	16aa\	.	.	.	.	.
8A\	.	16cc#\	16ee\	.	8c#\	De-	8ee\	De-
.	.	16a\JJ	16cc#\JJ	.	.	.	.	.
8A\J	.	16e/LL	16a/LL	.	8c#\	-us	8ee\	-us
.	.	16c#/JJ	16e/JJ	.	.	.	.	.
=54	=54	=54	=54	=54	=54	=54	=54	=54
!	!	!LO:TX:a:t=P:problem:mixed beam	!	!	!	!	!	!
8A\L	.	8A/L	16c#/LL	.	8c#\	nos-	(8ee\	nos-
.	.	.	16A/JJ	.	.	.	.	.
8B\	.	8ee\	8gg\L	.	8d\L	.	4gg\)	.
8c#\J	.	8ee\J	8gg\J	.	8e\J	.	.	.
=55	=55	=55	=55	=55	=55	=55	=55	=55
8d\L	.	8dd\L	16ff#\LL	.	8d\	-ter	8ff#\	-ter
.	.	.	16a\	.	.	.	.	.
8F#\	.	8a\	16b\	.	16A/	qui	16b\	qui
.	.	.	16cc#\	.	16A/	in	16cc#\	in
8D\J	.	8f#\J	16dd\	.	8F#/	al-	16dd\LL	al-
.	.	.	16ccn\JJ	.	.	.	16ccn\JJ	.
=56	=56	=56	=56	=56	=56	=56	=56	=56
!	!	!LO:TX:a:t=P:problem:mixed beam	!	!	!	!	!	!
8G\L	.	8d/L	16b\LL	.	8D/	-tis	8b\	-tis
.	.	.	16b\	.	.	.	.	.
8G\	.	8b\	16cc#X\	.	8B\	ha-	16cc#\LL	ha-
.	.	.	16dd\	.	.	.	16dd\JJ	.
8E\J	.	8g\J	16ee\	.	8G/	-bi-	16ee\LL	-bi-
.	.	.	16dd\JJ	.	.	.	16dd\JJ	.
!	!	!	!	!	!	!	!LO:LB:g=original	!
=57	=57	=57	=57	=57	=57	=57	=57	=57
!	!	!LO:TX:a:t=P:problem:mixed beam	!	!	!	!	!	!
8A\L	.	8e/L	16cc#\LL	.	8E/	-tat	8cc#\	-tat
.	.	.	16cc#\	.	.	.	.	.
8A\	.	8cc#\	16dd\	.	16c#\	ex	16dd\	ex
.	.	.	16ee\	.	16c#\	hu-	16ee\	hu-
8F#\J	.	8a\J	16ff#\	.	16A/	-mi-	16ff#\	-mi-
.	.	.	16ee\JJ	.	16A/	-li-	16ee\	-li-
=58	=58	=58	=58	=58	=58	=58	=58	=58
!	!	!LO:TX:a:t=P:problem:mixed beam	!	!	!	!	!	!
8B\L	.	8f#/L	16dd\LL	.	8F#/	-a	8dd\	-a
.	.	.	16dd\	.	.	.	.	.
8B\	.	8dd\	16ee\	.	16d\	res-	16ee\	res-
.	.	.	16ff#\	.	16d\	-pi-	16ff#\	-pi-
!	!	!	!	!	!LO:LB:g=original	!	!	!
8G\J	.	8b\J	16gg\	.	16B\	-cit	16gg\	-cit
.	.	.	16ff#\JJ	.	16B\	in	16ff#\	in
!LO:LB:g=original	!	!	!	!	!	!	!	!
=59	=59	=59	=59	=59	=59	=59	=59	=59
8c#\L	.	8g\L	16ee\LL	.	16G/	Coe-	16ee\	Coe-
.	.	.	16ee\	.	16G/	-lo	16ee\	-lo
8c#\	.	8ee\	16ff#\	.	8e\	et	16ff#\LL	ex
.	.	.	16gg\	.	.	.	16gg\JJ	.
8A\J	.	8cc#\J	16aa\	.	8c#\	in	16aa\LL	in
.	.	.	16gg\JJ	.	.	.	16gg\JJ	.
=60	=60	=60	=60	=60	=60	=60	=60	=60
!LO:TX:a:t=P:problem:mixed beam	!	!LO:TX:a:t=P:problem:mixed beam	!	!	!	!	!	!
8d\L	.	8dd\L	16ff#\LL	.	8d\	ter-	16ff#\LL	ter-
.	.	.	16dd\JJ	.	.	.	16dd\JJ	.
!	!	!	!LO:TX:a:t=P:problem:mixed beam	!	!	!	!	!
8A\	.	8e/	8e/L	.	4c#\	-r-	4eeM\	.
8AA/J	.	8cc#\J	8cc#\J	.	.	.	.	.
!	!	!	!	!	!	!	!LO:LB:g=original	!
=61	=61	=61	=61	=61	=61	=61	=61	=61
8D\L	.	16dd\LL	16dd\LL	.	4d\	-a	4dd\	-ra
.	.	16a\JJ	16a\JJ	.	.	.	.	.
*	*	*Xtuplet	*	*	*	*	*	*
8G\	.	24b\LL	24b\LL	.	.	.	.	.
.	.	24cc#\	24cc#\	.	.	.	.	.
.	.	24dd\JJ	24dd\JJ	.	.	.	.	.
8E\J	.	24ee\LL	24ee\LL	.	8r	.	8r	.
.	.	24ff#\	24ff#\	.	.	.	.	.
.	.	24gg\JJ	24gg\JJ	.	.	.	.	.
!	!	!LO:PB:g=original	!LO:LB:g=original	!	!	!	!	!
=62	=62	=62	=62	=62	=62	=62	=62	=62
!	!	!	!	!	!LO:N:vis=0	!	!LO:N:vis=0	!
8A\L	.	16cc#\LL	16cc#\LL	.	2.r	.	2.r	.
.	.	16bb\	16bb\	.	.	.	.	.
8c#\	.	16aa\	16aa\	.	.	.	.	.
.	.	16gg\	16gg\	.	.	.	.	.
8A\J	.	16ff#\	16ff#\	.	.	.	.	.
.	.	16ee\JJ	16ee\JJ	.	.	.	.	.
=63	=63	=63	=63	=63	=63	=63	=63	=63
*	*	*tuplet	*	*	*	*	*	*
!LO:TX:a:t=P:problem:mixed beam	!	!LO:TUP:a:problem:dziwny znaczek zamiast numeru	!	!	!	!	!	!
8d\L	.	24ff#\LL	24ff#\LL	.	.	.	.	.
.	.	24ee\	24ee\	.	.	.	.	.
.	.	24dd\JJ	24dd\JJ	.	.	.	.	.
8A\	.	4eeT\	4eeT\	.	.	.	.	.
8AA/J	.	.	.	.	.	.	.	.
=64	=64	=64	=64	=64	=64	=64	=64	=64
!	!	!	!LO:N:vis=00	!	!	!	!	!
8D\L	.	4dd\	1.r	.	4d\	Sus-	4ff#\	Sus-
8F#\	.	.	.	.	.	.	.	.
8D\J	.	8r	.	.	8d\	-ci-	8ff#\	-ci-
=65	=65	=65	=65	=65	=65	=65	=65	=65
!	!	!LO:N:vis=00	!	!	!	!	!	!
8A\L	.	1.r	.	.	4.c#\	-tans	4.ee\	-tans
8c#\	.	.	.	.	.	.	.	.
8A\J	.	.	.	.	.	.	.	.
=66	=66	=66	=66	=66	=66	=66	=66	=66
8D\L	.	.	.	.	4.A\	a	4.cc#\	a
8F#\	.	.	.	.	.	.	.	.
8D\J	.	.	.	.	.	.	.	.
=67	=67	=67	=67	=67	=67	=67	=67	=67
8GG/L	.	.	.	.	4G/	ter-	4b\	ter-
8BB/	.	.	.	.	.	.	.	.
8D/J	.	.	.	.	8F#/	-ra	[8a\	-ra
=68	=68	=68	=68	=68	=68	=68	=68	=68
!LO:TX:a:t=P:problem:mixed beam	!	!	!LO:N:vis=00	!	!	!	!	!
8D\L	.	.	1.r	.	8F#/	i-	8a\]	.
8E\	.	.	.	.	8.E/	-no-	8.g\	in
8EE/J	.	.	.	.	.	.	.	.
.	.	.	.	.	16E/	.	16g\	o-
!	!	!	!	!	!LO:LB:g=original	!	!	!
=69	=69	=69	=69	=69	=69	=69	=69	=69
!	!	!LO:N:vis=00	!	!	!LO:SIC:l:s=pem:v	!	!	!
8D\L	.	1.r	.	.	4.D/	-per	4.f#/	-nem
8F#\	.	.	.	.	.	.	.	.
8A\J	.	.	.	.	.	.	.	.
=70	=70	=70	=70	=70	=70	=70	=70	=70
8D\L	.	.	.	.	4F#/	et	4a\	et-
8F#\	.	.	.	.	.	.	.	.
8D\J	.	.	.	.	8A/	des-	8ccn\	-des
!	!	!	!	!	!	!	!LO:LB:g=original	!
=71	=71	=71	=71	=71	=71	=71	=71	=71
8G\	.	.	.	.	8.G/	-ter-	8.b\	ter-
8r	.	.	.	.	.	.	.	.
.	.	.	.	.	16F#/	-co-	16a\	-co-
8GG/	.	.	.	.	8G/	-re	8b\	-re
=72	=72	=72	=72	=72	=72	=72	=72	=72
!	!	!	!LO:N:vis=00	!	!	!	!	!
8E\L	.	.	1.r	.	8.G#X/	e-	8.b\	e-
8G#X\	.	.	.	.	.	.	.	.
.	.	.	.	.	16G#/	-ri-	16b\	-ri-
8E\J	.	.	.	.	8B\	-gens	8dd\	-gens
=73	=73	=73	=73	=73	=73	=73	=73	=73
!	!	!LO:N:vis=0	!	!	!	!	!	!
8A\	.	2.r	.	.	8.A/	pau-	8.cc#\	pau-
8r	.	.	.	.	.	.	.	.
.	.	.	.	.	16G#X/	-pe-	16b\	-pe-
8AA/	.	.	.	.	8A/	-rem	8cc#\	-rem
!LO:LB:g=original	!	!	!	!	!	!	!	!
=74	=74	=74	=74	=74	=74	=74	=74	=74
8AA/L	.	.	.	.	8c#\	e-	8ee\	e-
8C#/	.	.	.	.	8e\	-ri-	8gg\	-ri-
8D/J	.	.	.	.	8d\	-gens	8ff#\	-gens
=75	=75	=75	=75	=75	=75	=75	=75	=75
!LO:TX:a:t=P:problem:mixed beam	!	!	!	!	!	!	!	!
8G\L	.	4.r	.	.	8G/	pa-	8ee\	pau-
.	.	.	.	.	8qqF#/	.	8qqdd/	.
8A\	.	.	.	.	8.E/	-u-	8.cc#\	-pe-
8AA/J	.	.	.	.	.	.	.	.
.	.	.	.	.	16E/	-pe-	16cc#\	.
=76	=76	=76	=76	=76	=76	=76	=76	=76
8D\	.	8r	16r	.	8F#/	-rem	4dd\	-rem
!	!	!	!	!LO:DY:t=for	!	!	!	!
.	.	.	16a\LL	f	.	.	.	.
8r	.	8r	16b\	.	8r	.	.	.
.	.	.	16cc#\	.	.	.	.	.
8F#\	.	8a/	16dd\	.	8r	.	8r	.
.	.	.	16ccn\JJ	.	.	.	.	.
!	!	!	!	!	!LO:LB:g=original	!	!LO:LB:g=original	!
=77	=77	=77	=77	=77	=77	=77	=77	=77
!	!	!	!	!	!LO:N:vis=0	!	!LO:N:vis=0	!
8G\	.	8d/	16b\LL	.	2.r	.	2.r	.
.	.	.	16b\	.	.	.	.	.
8r	.	8r	16cc#X\	.	.	.	.	.
.	.	.	16dd\	.	.	.	.	.
8G#X\	.	8b/	16ee\	.	.	.	.	.
.	.	.	16dd\JJ	.	.	.	.	.
=78	=78	=78	=78	=78	=78	=78	=78	=78
8A\	.	8e/	16cc#\LL	.	.	.	.	.
.	.	.	16cc#\	.	.	.	.	.
8r	.	8r	16dd\	.	.	.	.	.
.	.	.	16ee\	.	.	.	.	.
8A#X\	.	8cc#\	16ff#\	.	.	.	.	.
.	.	.	16ee\JJ	.	.	.	.	.
=79	=79	=79	=79	=79	=79	=79	=79	=79
!LO:TX:a:t=P:problem:mixed beam	!	!	!LO:TUP:a:problem:klamra łukowa bez numeru	!	!	!	!	!
8B\L	.	8b\	24dd\LL	.	4.r	.	4.r	.
.	.	.	24cc#\	.	.	.	.	.
.	.	.	24b\JJ	.	.	.	.	.
8F#\	.	4aT\	4cc#t\	.	.	.	.	.
8FF#/J	.	.	.	.	.	.	.	.
=80	=80	=80	=80	=80	=80	=80	=80	=80
8BB/L	.	8b\	16b\LL	.	16r	.	16r	.
.	.	.	16b\JJ	.	16B\	ut	16dd\	ut
8D/	.	32b\LLL	32b\LLL	.	8B\	Col-	8dd\	Col-
.	.	32a#X\	32cc#\	.	.	.	.	.
.	.	32b\	32dd\	.	.	.	.	.
.	.	32cc#\JJJ	32ee\JJJ	.	.	.	.	.
8BB/J	.	16dd\LL	16ff#\LL	.	16B\	-lo-	16dd\	-lo-
.	.	16dd\JJ	16bb\JJ	.	16B\	-cet	16dd\	-cet
=81	=81	=81	=81	=81	=81	=81	=81	=81
8F#\L	.	16cc#\LL	16aa#X\LL	.	16A#X/	e-	16cc#\	e-
.	.	16cc#\	16ee\	.	16A#/	-um	16cc#\	-um
8A#X\	.	16cc#\	16ee\	.	16A#/	cum	16cc#\	cum
.	.	16cc#\JJ	16ee\JJ	.	16A#/	prin-	16cc#\	prin-
8F#\J	.	16cc#\LL	16ee\LL	.	16A#/	-ci-	16cc#\	-ci-
.	.	32b\L	32dd\L	.	16A#/	-pi-	16cc#\	-pi-
.	.	32a#X\JJJ	32cc#\JJJ	.	.	.	.	.
=82	=82	=82	=82	=82	=82	=82	=82	=82
8B\L	.	8b\L	16dd\LL	.	8B\	-bus	8dd\	-bus
.	.	.	16b\JJ	.	.	.	.	.
8B\	.	8dd\	32b\LLL	.	8d\	po-	16ff#\	po-
.	.	.	32cc#\	.	.	.	.	.
.	.	.	32dd\	.	.	.	16ff#\	-pu-
.	.	.	32ee\JJJ	.	.	.	.	.
8B\J	.	8dd\J	16ff#\LL	.	16d\	-pu-	16ff#\	-li
.	.	.	16bb\JJ	.	16d\	-li	16ff#\	su-
!	!	!	!LO:LB:g=original	!	!	!	!LO:LB:g=original	!
=83	=83	=83	=83	=83	=83	=83	=83	=83
!	!	!LO:TX:a:t=P:problem:mixed beam	!	!	!	!	!	!
8E\L	.	16ee\LL	8gg\L	.	4e\	su-	8gg\	-i
.	.	16e/JJ	.	.	.	.	.	.
!	!	!LO:N:vis=16	!	!	!	!	!	!
8E\	.	32e/LLL	8gg\	.	.	.	8gg\	po-
!	!	!LO:N:vis=16	!	!	!	!	!	!
.	.	32f#/	.	.	.	.	.	.
!	!	!LO:N:vis=16	!	!	!	!	!	!
.	.	32g/	.	.	.	.	.	.
!	!	!LO:N:vis=16	!	!	!	!	!	!
.	.	32a/JJJ	.	.	.	.	.	.
8E\J	.	16b\LL	8gg\J	.	8e\	-i	16gg\	-pu-
.	.	16ee\JJ	.	.	.	.	16gg\	-li
!	!	!LO:LB:g=original	!	!	!	!	!	!
=84	=84	=84	=84	=84	=84	=84	=84	=84
8A\L	.	8cc#\L	16ee\LL	.	8c#\	qui	8ee\	qui
.	.	.	16a\JJ	.	.	.	.	.
8A\	.	8cc#\	32a\LLL	.	8c#\	ha-	16ee\	ha-
.	.	.	32b\	.	.	.	.	.
.	.	.	32cc#\	.	.	.	16ee\	-bi-
.	.	.	32dd\JJJ	.	.	.	.	.
8A\J	.	8cc#\J	16ee\LL	.	8c#\	-bi-	16ee\	-ta-
.	.	.	16aa\JJ	.	.	.	16ee\	-re
=85	=85	=85	=85	=85	=85	=85	=85	=85
*tremolo	*	*	*	*	*	*	*	*
!	!	!LO:TX:a:t=P:problem:mixed beam	!	!	!	!	!	!
8D\L	.	16dd\LL	8ff#\L	.	4d\	-ta-	4ff#\	fa-
.	.	16d/JJ	.	.	.	.	.	.
!	!	!LO:N:vis=16	!	!	!	!	!	!
8D\	.	32d/LLL	8ff#\	.	.	.	.	.
!	!	!LO:N:vis=16	!	!	!	!	!	!
.	.	32e/	.	.	.	.	.	.
!	!	!LO:N:vis=16	!	!	!	!	!	!
.	.	32f#/	.	.	.	.	.	.
!	!	!LO:N:vis=16	!	!	!	!	!	!
.	.	32g/JJJ	.	.	.	.	.	.
8D\J	.	16a\LL	8ff#\J	.	8d\	-re	8ff#\	-cit
.	.	16dd\JJ	.	.	.	.	.	.
!	!	!	!	!	!LO:LB:g=original	!	!	!
=86	=86	=86	=86	=86	=86	=86	=86	=86
8G\L	.	8b\L	16dd\LL	.	4B\	fa-	4dd\	fa-
.	.	.	16g\JJ	.	.	.	.	.
8G\	.	8b\	32g\LLL	.	.	.	.	.
.	.	.	32a\	.	.	.	.	.
.	.	.	32b\	.	.	.	.	.
.	.	.	32cc#\JJJ	.	.	.	.	.
8G\J	.	8b\J	16dd\LL	.	8B\	-cit	8dd\	-cit
.	.	.	16gg\JJ	.	.	.	.	.
!LO:LB:g=original	!	!	!	!	!	!	!	!
=87	=87	=87	=87	=87	=87	=87	=87	=87
!	!	!LO:TX:a:t=P:problem:mixed beam	!	!	!	!	!	!
8C#/L	.	16cc#\LL	8ee\L	.	8c#\	Ste-	8ee\	ste-
.	.	16c#/JJ	.	.	.	.	.	.
8C#/	.	32c#/LLL	8ee\	.	8c#\	-ri-	8ee\	-ri-
.	.	32d/	.	.	.	.	.	.
.	.	32e/	.	.	.	.	.	.
.	.	32f#/JJJ	.	.	.	.	.	.
8C#/J	.	16g/LL	8ee\J	.	8c#\	-lem	8ee\	-lem
.	.	16cc#/JJ	.	.	.	.	.	.
!	!	!	!	!	!	!	!LO:LB:g=original	!
=88	=88	=88	=88	=88	=88	=88	=88	=88
8F#\L	.	8a#X/L	16cc#\LL	.	8A#X\	in	8cc#\	in
.	.	.	16f#\JJ	.	.	.	.	.
8F#\	.	8a#/	32f#/LLL	.	8A#\	do-	8cc#\	Do-
.	.	.	32g/	.	.	.	.	.
.	.	.	32a#X/	.	.	.	.	.
.	.	.	32b/JJJ	.	.	.	.	.
8F#\J	.	8a#/J	16cc#\LL	.	8A#\	-mo	8cc#\	-mo
.	.	.	16ff#\JJ	.	.	.	.	.
*Xtremolo	*	*	*	*	*	*	*	*
=89	=89	=89	=89	=89	=89	=89	=89	=89
!LO:TX:a:t=P:problem:mixed beam	!	!	!	!	!	!	!	!
8BB/L	.	8b\L	24dd\LL	.	8B\	mat-	8dd\	ma-
.	.	.	24cc#\	.	.	.	.	.
.	.	.	24b\JJ	.	.	.	.	.
8F#\	.	8a#X\	4cc#t\	.	4A#X\	-rem	4cc#\	.
8FF#/J	.	8a#\J	.	.	.	.	.	.
=90	=90	=90	=90	=90	=90	=90	=90	=90
!LO:TX:a:t=P:problem:mixed beam	!	!	!	!	!	!	!	!
8BB/L	.	8b\L	8b\	.	8B\	fi-	8b\	-trem
8G\	.	8b\	16ee\LL	.	8B\	-li-	8dd\	fi-
.	.	.	16gg\	.	.	.	.	.
8G\J	.	8b\J	16bb\	.	8B\	-o-	8gg\	-li-
.	.	.	16ee\JJ	.	.	.	.	.
=91	=91	=91	=91	=91	=91	=91	=91	=91
.	.	.	8qqdd/	.	.	.	.	.
!LO:TX:a:t=P:problem:mixed beam	!	!	!	!	!	!	!	!
8A\L	.	16a/LL	16cc#\LL	.	8A\	-rum	8cc#\	-o-
.	.	16e/JJ	16a\JJ	.	.	.	.	.
8AA/	.	16cc#\LL	16ee\LL	.	8c#\	lae-	8ee\	-rum
.	.	16a\JJ	16cc#\JJ	.	.	.	.	.
8AA/J	.	16ee\LL	16gg\LL	.	8e\	.	8gg\	lae-
.	.	16cc#\JJ	16ee\JJ	.	.	.	.	.
=92	=92	=92	=92	=92	=92	=92	=92	=92
16D\LL	.	8dd\L	16ff#\LL	.	8d\	-tan-	16ff#\LL	-tan-
16F#\JJ	.	.	16dd\JJ	.	.	.	16dd\JJ	.
!LO:TX:a:t=P:problem:mixed beam	!	!	!	!	!	!	!	!
8A\L	.	8a\	8a\L	.	4c#\	.	4ee\	.
8AA/J	.	8cc#\J	8ee\J	.	.	.	.	.
=93	=93	=93	=93	=93	=93	=93	=93	=93
4D\	.	8dd\	8dd\L	.	8d\	-tem	8dd\	-tem
.	.	4ff#\	16dd\L	.	8A\	Glo-	8ff#\	Glo-
.	.	.	16ff#\	.	.	.	.	.
!	!	!	!	!	!LO:PB:g=original	!	!	!
8D\	.	.	16aa\	.	16A/	-ri-	16ff#\	-ri-
.	.	.	16ddd\JJ	.	16A/	-a	16ff#\	-a
!	!	!	!LO:LB:g=original	!	!	!	!LO:LB:g=original	!
=94	=94	=94	=94	=94	=94	=94	=94	=94
4A\	.	4ee\	8.ccc#\L	.	4c#\	Pa-	4ee\	Pa-
.	.	.	16ccc#\K	.	.	.	.	.
8A\	.	8ee\	8ccc#\J	.	8c#\	-tri	8ee\	-tri
=95	=95	=95	=95	=95	=95	=95	=95	=95
4G\	.	8.dd\L	8.bb\L	.	8.B\	Glo-	8.dd\	Glo-
.	.	16ee\K	16ccc#\K	.	16c#\	-ri-	16ee\	-ri-
8D\	.	8ff#\J	8ddd\J	.	8d\	-a	8ff#\	-a
=96	=96	=96	=96	=96	=96	=96	=96	=96
8.A\L	.	8.ee\L	8.ccc#\L	.	8.c#\	Fi-	8.ee\	Fi-
16A\K	.	16ee\K	16ccc#\K	.	16c#\	-li-	16ee\	-li-
8A\J	.	8ee\J	8ccc#\J	.	8c#\	-o	8ee\	-o
!	!	!LO:LB:g=original	!	!	!	!	!	!
=97	=97	=97	=97	=97	=97	=97	=97	=97
8D\L	.	8f#/L	8ddd\L	.	8F#/L	ex	4dd\	ex
8F#\	.	8a/	8dd\	.	8A/J	.	.	.
8D\J	.	8f#/J	8dd\J	.	8F#/	Spi-	8dd\	Spi-
=98	=98	=98	=98	=98	=98	=98	=98	=98
4G\	.	8b\L	8dd\L	.	8B\	-ri-	8dd\	-ri-
.	.	8cc#\	8ee\	.	8c#\	-tu-	8ee\	-tu-
8D\	.	8dd\J	8ff#\J	.	8d\	-i	8ff#\	-i
=99	=99	=99	=99	=99	=99	=99	=99	=99
4A\	.	4.cc#\	4.ee\	.	4.c#\	San-	4.ee\	san-
8AA/	.	.	.	.	.	.	.	.
!	!	!	!	!	!	!	!LO:PB:g=original	!
=100	=100	=100	=100	=100	=100	=100	=100	=100
!LO:TX:a:t=P:problem:mixed beam	!	!	!	!	!	!	!	!
8D/L	.	8dd\L	16dd\LL	.	8d\	-cto	8ff#\	-cto
.	.	.	16ddd\JJ	.	.	.	.	.
8d\	.	8a\	24dd\LL	.	8A\	Si-	8ff#\	Si-
.	.	.	24ee\	.	.	.	.	.
.	.	.	24ff#\JJ	.	.	.	.	.
8A\J	.	8cc#\J	24ee\LL	.	8c#\	-cut	8ee\	-cut
.	.	.	24ff#\	.	.	.	.	.
.	.	.	24gg\JJ	.	.	.	.	.
!	!	!	!	!	!LO:LB:g=original	!	!	!
=101	=101	=101	=101	=101	=101	=101	=101	=101
!LO:TX:a:t=P:problem:takt zapisany repetycją, adnotacja "bis"	!	!	!	!	!	!	!	!
!LO:TX:a:t=P:problem:mixed beam	!	!	!	!	!	!	!	!
8D/Lyy	.	8dd\L	16ff#\LL	.	16d\	e-	16ff#\	e-
.	.	.	16ddd\JJ	.	16d\	-rat	16ff#\	-rat
8d\yy	.	8a\	24dd\LL	.	16A/	in	16ff#\	in
.	.	.	24ee\	.	.	.	.	.
.	.	.	.	.	16A/	prin-	16ff#\	prin-
.	.	.	24ff#\JJ	.	.	.	.	.
8A\Jyy	.	8cc#\J	24ee\LL	.	16c#\	-ci-	16ee\	-ci-
.	.	.	24ff#\	.	.	.	.	.
.	.	.	.	.	16c#\	-pi-	16ee\	-pi-
!	!	!	!	!	!	!	!LO:TX:a:t=vi	!
.	.	.	24gg\JJ	.	.	.	.	.
!LO:LB:g=original	!	!	!	!	!	!	!	!
=102	=102	=102	=102	=102	=102	=102	=102	=102
!LO:TX:a:t=P:problem:mixed beam	!	!	!	!	!	!	!LO:TX:a:t=de	!
8D/L	.	8dd\L	16ff#\LL	.	16d\	-o	16ff#\	o
.	.	.	16dd\JJ	.	16d\	et	16ff#\	prin-
8d\	.	8ff#\	16aa\LL	.	8d\	nunc	8ff#\	-ci-
.	.	.	16ff#\JJ	.	.	.	.	.
8A\J	.	8ff#\J	16ddd\LL	.	8d	et	8ff#\	-pi-
.	.	.	16ff#\JJ	.	.	.	.	.
=103	=103	=103	=103	=103	=103	=103	=103	=103
!LO:TX:a:t=P:problem:mixed beam	!	!	!	!	!	!	!	!
8A\L	.	8dd\L	8ff#\L	.	8d\	Sem-	8ff#\	-o
!	!	!	!	!	!	!	!LO:N:vis=8.	!
8AA/	.	16cc#\L	16ee\L	.	8c#\	-per	8ee\	ex
.	.	16a\J	16a\	.	.	.	.	.
8c#\J	.	8ee\J	16aa\	.	16c#\	et	16ee\	nunc
.	.	.	16ee\JJ	.	16c#\	in	16ee\	ex
=104	=104	=104	=104	=104	=104	=104	=104	=104
8d\L	.	8a\L	16ff#\LL	.	16d\	Sae-	16ff#\	Sem-
.	.	.	16dd\JJ	.	16B\	-cu-	16dd\	-per
8c#\	.	8cc#\	16ee\LL	.	8c#\	-la	8ee\	ex
.	.	.	16a\JJ	.	.	.	.	.
8A\J	.	8ee\J	16aa\LL	.	16c#\	Sae-	16ee\	in
.	.	.	16ee\JJ	.	16c#\	-cu-	16ee\	Sae-
!	!	!	!LO:LB:g=original	!	!	!	!LO:LB:g=original	!
=105	=105	=105	=105	=105	=105	=105	=105	=105
8d\L	.	8a\L	16ff#\LL	.	16d\LL	-lo-	16ff#\LL	-cu-
.	.	.	16dd\JJ	.	16B\JJ	.	16dd\JJ	.
8c#\	.	8cc#\	16ee\LL	.	8c#\	-rum	8ee\	-la
.	.	.	16a\JJ	.	.	.	.	.
!	!	!	!	!	!LO:LB:g=original	!	!	!
8A\J	.	8ee\J	16aa\LL	.	16e\	a-	16aa\	Sae-
.	.	.	16ggn\JJ	.	16e\	-men	16ggn\	-cu-
=106	=106	=106	=106	=106	=106	=106	=106	=106
!LO:TX:a:t=P:problem:mixed beam	!	!	!	!	!	!	!	!
16D\LL	.	16dd\LL	16ff#\LL	.	16A/LL	a-	16ff#\LL	-lo-
16E\	.	16cc#\	16ee\	.	16G/JJ	.	16ee\JJ	.
16F#\	.	16dd\	16dd\	.	16F#/LL	.	16dd\LL	-rum
16G\	.	16ee\JJ	16ee\	.	16B/JJ	.	16ee\JJ	.
16A\	.	16a\LL	16a\	.	8E/	-men	16a\LL	a-
16AA/JJ	.	16cc#\JJ	16cc#\JJ	.	.	.	16cc#\JJ	.
=107	=107	=107	=107	=107	=107	=107	=107	=107
8D\	.	8dd\	16dd\LL	.	8F#/	a-	16dd\	-men
.	.	.	16a\	.	.	.	16a\LL	a-
8r	.	8r	16b\	.	8r	.	16b\	.
.	.	.	16cc#\	.	.	.	16cc#\	.
8F#\	.	8a/	16dd\	.	8A/	-men	16dd\	.
.	.	.	16ccn\JJ	.	.	.	16ccn\JJ	.
=108	=108	=108	=108	=108	=108	=108	=108	=108
8G\	.	8d/	16b\LL	.	8D/	a-	16b\	.
.	.	.	16b\	.	.	.	16b\LL	.
8r	.	8r	16cc#X\	.	8r	.	16cc#\	.
.	.	.	16dd\	.	.	.	16dd\	.
8G#X\	.	8b/	16ee\	.	8B\	-men	16ee\	.
.	.	.	16dd\JJ	.	.	.	16dd\JJ	.
=109	=109	=109	=109	=109	=109	=109	=109	=109
8A\	.	8e/	16cc#\LL	.	8E/	a-	16cc#\	.
.	.	.	16ee\	.	.	.	16ee\LL	.
8r	.	8r	16ff#\	.	8r	.	16ff#\	.
.	.	.	16gg\	.	.	.	16gg\	.
8C#/	.	8ee\	16aa\	.	8e\	-men	16aa\	.
.	.	.	16gg\JJ	.	.	.	16gg\JJ	.
=110	=110	=110	=110	=110	=110	=110	=110	=110
!LO:TX:a:t=P:problem:mixed beam	!	!	!	!	!	!	!	!
8D\L	.	8dd\	24ff#\LL	.	8d\	a-	24ff#\LL	.
.	.	.	24ee\	.	.	.	24ee\	.
.	.	.	24dd\JJ	.	.	.	24dd\JJ	.
8A\	.	4cc#\	4eeT\	.	4c#\	-men	4ee\	.
8AA/J	.	.	.	.	.	.	.	.
=111	=111	=111	=111	=111	=111	=111	=111	=111
!LO:TX:a:t=P:problem:źle zapisana repetycja w vl I	!	!LO:TX:a:t=P:problem:źle zapisana repetycja w vl I	!LO:TX:a:t=P:problem:źle zapisana repetycja	!	!LO:TX:a:t=P:problem:źle zapisana repetycja w vl I	!	!LO:TX:a:t=P:problem:źle zapisana repetycja w vl I	!
!	!	!	!LO:TX:a:t=P:problem:tt.111-115 zapisane repetycją	!	!	!	!	!
4.ryy	.	4.ryy	16ff#\LLyy	.	4.ryy	.	4.ryy	.
.	.	.	16ee\yy	.	.	.	.	.
.	.	.	16dd\yy	.	.	.	.	.
.	.	.	16ee\yy	.	.	.	.	.
.	.	.	16a\yy	.	.	.	.	.
.	.	.	16cc#JJyy	.	.	.	.	.
=112	=112	=112	=112	=112	=112	=112	=112	=112
!LO:TX:a:t=P:problem:takty 112-115 zapisane repetycją	!	!LO:TX:a:t=P:problem:takty 112-115 zapisane repetycją	!	!	!LO:TX:a:t=P:problem:takty 112-115 zapisane repetycją	!	!LO:TX:a:t=P:problem:tt. 112-115 zapisane repetycją	!
8D\yy	.	8dd\yy	16dd\LLyy	.	8F#/yy	a-	16dd\yy	-men
.	.	.	16a\yy	.	.	.	16a\LLyy	a-
8ryy	.	8ryy	16b\yy	.	8ryy	.	16b\yy	.
.	.	.	16cc#\yy	.	.	.	16cc#\yy	.
8F#\yy	.	8a/yy	16dd\yy	.	8A/yy	-men	16dd\yy	.
.	.	.	16ccn\JJyy	.	.	.	16ccn\JJyy	.
=113	=113	=113	=113	=113	=113	=113	=113	=113
8G\yy	.	8d/yy	16b\LLyy	.	8D/yy	a-	16b\yy	.
.	.	.	16b\yy	.	.	.	16b\LLyy	.
8ryy	.	8ryy	16cc#X\yy	.	8ryy	.	16cc#\yy	.
.	.	.	16dd\yy	.	.	.	16dd\yy	.
8G#X\yy	.	8b/yy	16ee\yy	.	8B\yy	-men	16ee\yy	.
.	.	.	16dd\JJyy	.	.	.	16dd\JJyy	.
=114	=114	=114	=114	=114	=114	=114	=114	=114
8A\yy	.	8e/yy	16cc#\LLyy	.	8E/yy	a-	16cc#\yy	.
.	.	.	16ee\yy	.	.	.	16ee\LLyy	.
8ryy	.	8ryy	16ff#\yy	.	8ryy	.	16ff#\yy	.
.	.	.	16gg\yy	.	.	.	16gg\yy	.
8C#/yy	.	8ee\yy	16aa\yy	.	8e\yy	-men	16aa\yy	.
.	.	.	16gg\JJyy	.	.	.	16gg\JJyy	.
=115	=115	=115	=115	=115	=115	=115	=115	=115
!LO:TX:a:t=P:problem:mixed beam	!	!	!	!	!	!	!	!
8D\Lyy	.	8dd\yy	24ff#\LLyy	.	8d\yy	a-	24ff#\LLyy	.
.	.	.	24ee\yy	.	.	.	24ee\yy	.
.	.	.	24dd\JJyy	.	.	.	24dd\JJyy	.
8A\yy	.	4cc#\yy	4eeT\yy	.	4c#\yy	.	4ee\yy	.
8AA/Jyy	.	.	.	.	.	.	.	.
!	!	!	!	!	!	!	!LO:LB:g=original	!
=116	=116	=116	=116	=116	=116	=116	=116	=116
4D\	.	4dd\	4dd\	.	4d\	-men	4dd\	-men
8r	.	8r	8r	.	8r	.	8r	.
==;;	==	==	==	==	==	==	==;;	==
*-	*-	*-	*-	*-	*-	*-	*-	*-
!!!system-decoration: [g1][g2]s5
!!!RDF**kern: > = above
!!!RDF**kern: < = below
!!!AIN: 1 empty 1 tenor 2 violn 1 vox
!!!ENC: Marta Lawrence
!!!END: 2020-09-09
!!!ENC: Tomasz Grochalski
!!!END: 2020-05-15
